dist/img/socials/twitter.svg

<svg width="16" height="14" viewBox="0 0 16 14" fill="none" xmlns="http://www.w3.org/2000/svg">
<path fill-rule="evenodd" clip-rule="evenodd" d="M16 1.65713C15.4114 1.93821 14.7787 2.12837 14.1147 2.21377C14.7923 1.77623 15.313 1.08372 15.5579 0.258267C14.9237 0.6633 14.2211 0.957523 13.4734 1.11604C12.8747 0.429062 12.0216 0 11.0774 0C9.26464 0 7.79488 1.58227 7.79488 3.53414C7.79488 3.81108 7.82384 4.08093 7.87984 4.33971C5.15168 4.19226 2.73296 2.7851 1.11392 0.646704C0.83136 1.16877 0.66944 1.77589 0.66944 2.42363C0.66944 3.64979 1.24896 4.73161 2.12976 5.36552C1.59168 5.34702 1.08544 5.18816 0.64304 4.92349C0.64272 4.93801 0.64272 4.95288 0.64272 4.96775C0.64272 6.68019 1.77424 8.10861 3.27584 8.43343C3.00048 8.51416 2.7104 8.55755 2.41104 8.55755C2.19952 8.55755 1.99392 8.53525 1.79344 8.49394C2.2112 9.89798 3.42336 10.92 4.85984 10.9485C3.73648 11.8964 2.32096 12.4615 0.78304 12.4615C0.51808 12.4615 0.2568 12.4447 0 12.412C1.45264 13.4148 3.17824 14 5.03184 14C11.0698 14 14.3715 8.61443 14.3715 3.94401C14.3715 3.79068 14.3683 3.63821 14.3621 3.4866C15.0035 2.98839 15.56 2.36589 16 1.65713Z" fill="white"/>
</svg>

<svg width="16" height="14" fill="none" xmlns="http://www.w3.org/2000/svg"><path fill-rule="evenodd" clip-rule="evenodd" d="M16 1.657a6.201 6.201 0 0 1-1.885.557A3.511 3.511 0 0 0 15.558.258c-.634.405-1.337.7-2.085.858C12.875.429 12.022 0 11.077 0 9.265 0 7.795 1.582 7.795 3.534c0 .277.029.547.085.806C5.152 4.192 2.733 2.785 1.114.647a3.727 3.727 0 0 0-.445 1.777c0 1.226.58 2.308 1.46 2.942a3.095 3.095 0 0 1-1.486-.443v.045c0 1.712 1.131 3.14 2.633 3.465a3.069 3.069 0 0 1-1.483.06c.418 1.405 1.63 2.427 3.067 2.455-1.124.948-2.539 1.513-4.077 1.513-.265 0-.526-.016-.783-.049A8.818 8.818 0 0 0 5.032 14c6.038 0 9.34-5.386 9.34-10.056 0-.153-.004-.306-.01-.457A6.973 6.973 0 0 0 16 1.657Z" fill="#fff"/></svg>
